www/assets/icons/event_busy.svg

<svg xmlns="http://www.w3.org/2000/svg" width="24" height="24" viewBox="0 0 24 24" fill='currentColor'><path d="m9.31 18 2.44-2.44L14.19 18l1.06-1.06-2.44-2.44 2.44-2.44L14.19 11l-2.44 2.44L9.31 11l-1.06 1.06 2.44 2.44-2.44 2.44zM19 4h-1V2h-2v2H8V2H6v2H5c-1.11 0-1.99.9-1.99 2L3 20a2 2 0 0 0 2 2h14c1.1 0 2-.9 2-2V6c0-1.1-.9-2-2-2m0 16H5V9h14z"/></svg>

<svg width="24" height="24" viewBox="0 0 24 24" xmlns="http://www.w3.org/2000/svg" fill='currentColor'><path d="M9.31 18L11.75 15.56L14.19 18L15.25 16.94L12.81 14.5L15.25 12.06L14.19 11L11.75 13.44L9.31 11L8.25 12.06L10.69 14.5L8.25 16.94L9.31 18ZM19 4H18V2H16V4H8V2H6V4H5C3.89 4 3.01 4.9 3.01 6L3 20C3 21.1 3.89 22 5 22H19C20.1 22 21 21.1 21 20V6C21 4.9 20.1 4 19 4ZM19 20H5V9H19V20Z"/></svg>
